X:1
T:Se nasce in Cielo
T:Se nasce in Cielo
T:Angelo Notari
T:Source : Prime Musiche nuove a uno, due et tre voci + BC---London-G.Hole---1613. Editor : André Vierendeels (20/10/16).
T:Notes : Original clefs : C1, F4, F4 Original note values have been halved in 3-beat measures
T:©
T:©
C:Angelo Notari
Z:©
%%score [ 1 2 ] 3
L:1/8
Q:1/4=98
M:6/4
K:C
V:1 treble nm="Soprano" snm="S"
V:2 bass nm="Bass" snm="B"
V:3 bass nm="MusicXML Part"
V:1
 d2 G2 A2 B4 B2 | d2 d2 ^c2 d4 d2 | c2 c2 B2 A2 A2 G2 | A4 A2 d4 d2 :: e2 e2 d2 c2 c2 B2 | %5
w: Se na- sc'in Cie- lo,|di- o di De- lo,|a l'oc- ci- den- te, giun-|ge re- pen- te,|se si fa no- te, se|
w: Na- sce vi- ci- na|al fior la spi- na,|se- gui- ta'il pian- to al|ri- so'ac- can- to,|so- lo d'A- mo- re, e|
w: Brie- ve ba- le- no|du- ri'al se- re- no,|o- gni tem- pe- sta al|fin s'ar- re- sta,|ver- deg- gia'il ra- me e|
 c4 d2 e2 e2 d2 | c4 B2 A2 A2 B2 |[M:3/4] A4 A2 |[M:4/4] BABc d4- | d2 A2 A2 A2- | A2 A2 A4 | %11
w: gue l'Au- ro- ra, el|Ciel in du- ra, el|Ciel in-|do- * * * *|* ra, el Ciel|_ in- do-|
w: sta- te, e ver- no|du- ra'in e- ter- no,|in e-|ter- * * * *|* no, du- ra'in|_ e- ter-|
w: poi si spo- glia d'o-|gni sua fo- glia, d'o-|gni sua|fo- * * * *|* glia, d'o- gni|_ sua fo-|
 G2 d6- | d4 edcB | A2 A2 A4 | !fermata!G8 :| %15
w: ra, el|_ Ciel _ _ _|_ in- do-|ra.|
w: no, du-|ra in _ _ _|_ e- ter-|no.|
w: glia, d'o-|* gni _ _ _|_ sua fo-|glia.|
V:2
 G,2 G,,2 D,2 G,4 G,2 | G,2 ^F,2 E,2 D,4 D,2 | A,,2 A,,2 E,2 A,,2 A,,2 B,,2 | C,4 D,2 G,,4 G,,2 :: %4
w: Se na- sce'in Cie- lo,|di- o di De- lo,|a l'oc- ci- den- te, giun-|ge re- pen- te,|
w: Na- sce vi- ci- na|al fior la spi- na,|se- gui- ta'il pian- to al|ri- so'ac- can- to,|
w: Brie- ve ba- le- no|du- ri'al se- re- no,|o- gni tem- pe- sta al|fin s'ar- re- sta,|
 C,2 C,2 G,2 A,2 A,2 E,2 | A,4 G,2 C,2 C,2 G,,2 | A,,4 B,,2 D,2 D,2 B,,2 |[M:3/4] C,4 D,2 | %8
w: se si fa not- te, se-|gue l'Au- ro- ra, el|Ciel in- do- ra, el|Ciel in-|
w: so- lo d'A- mo- re, e|sta- te, e ver- no|du ra'in e- ter- ,no,|in e-|
w: ver- deg- gia'il ra- me e|poi si spo- glia d'o-|gni sua fo- glia, d'o-|gni sua|
[M:4/4] G,6 ^F,2 | E,2 D,2 C,2 D,2 | E,2 C,2 D,4 | G,,4 z4 | z2 D,2 C,B,,C,D, | E,2 C,2 D,4 | %14
w: do- *|* * ra el|Ciel in- do-|ra,|el Ciel _ _ _|_ in- do-|
w: ter- *|* * no, du-|ra'in e- ter-|no,|du- ra'in _ _ _|_ e- ter-|
w: fo- *|* * glia, d'o-|gni sua fo-|glia,|d'o- gni _ _ _|_ sua fo-|
 !fermata!G,,8 :| %15
w: ra.|
w: no.|
w: glia.|
V:3
"^BC" G,2 G,,2 D,2 G,4 G,2 | G,2 ^F,2 E,2 D,4 D,2 | A,,2 A,,2 E,2 A,,2 A,,2 B,,2 | %3
 C,4 D,2 G,,4 G,,2 :: C,2 C,2 G,2 A,2 A,2 E,2 | A,4 G,2 C,2 C,2 G,,2 | A,,4 B,,2 D,2 D,2 B,,2 | %7
[M:3/4] C,4 D,2 |[M:4/4] G,6 ^F,2 | E,2 D,2 C,2 D,2 | E,2 C,2 D,4 | G,,4 G,2 F,2 | %12
 E,2 D,2 C,B,,C,D, | E,2 C,2 D,4 | !fermata!G,,8 :| %15

